usr/share/icons/biglinux-icons-material/24/actions/format-list-ordered.svg

<svg xmlns="http://www.w3.org/2000/svg" viewBox="0 0 24 24"><path d="M5 4v1h1v2H5v1h3V7H7V5h1V4H5zm6 0v1h9V4h-9zm0 2v1h6V6h-6zm-7 4v1h1v2H4v1h5v-1H8v-2h1v-1H4zm7 0v1h9v-1h-9zm-5 1h1v2H6v-2zm5 1v1h2v-1h-2zm0 4v1h9v-1h-9zm0 2v1h6v-1h-6zm7 1v1h2v-1h-2z" style="fill:currentColor;fill-opacity:1;stroke:none;color:#dedede"/></svg>

<svg xmlns="http://www.w3.org/2000/svg" viewBox="0 0 24 24">
  <defs id="defs3051">
    <style type="text/css" id="current-color-scheme">
      .ColorScheme-Text {
        color:#363636;
      }
      </style>
  </defs>
 <path style="fill:currentColor;fill-opacity:1;stroke:none" 
     d="M 5 4 L 5 5 L 6 5 L 6 7 L 5 7 L 5 8 L 8 8 L 8 7 L 7 7 L 7 5 L 8 5 L 8 4 L 5 4 z M 11 4 L 11 5 L 20 5 L 20 4 L 11 4 z M 11 6 L 11 7 L 17 7 L 17 6 L 11 6 z M 4 10 L 4 11 L 5 11 L 5 13 L 4 13 L 4 14 L 9 14 L 9 13 L 8 13 L 8 11 L 9 11 L 9 10 L 4 10 z M 11 10 L 11 11 L 20 11 L 20 10 L 11 10 z M 6 11 L 7 11 L 7 13 L 6 13 L 6 11 z M 11 12 L 11 13 L 13 13 L 13 12 L 11 12 z M 11 16 L 11 17 L 20 17 L 20 16 L 11 16 z M 11 18 L 11 19 L 17 19 L 17 18 L 11 18 z M 18 19 L 18 20 L 20 20 L 20 19 L 18 19 z "
     class="ColorScheme-Text"
     />
</svg>
